**kern	**kern
*staff2	*staff1
=-	=-
*clefF4	*clefG2
*k[b-e-a-]	*k[b-e-a-]
*M4/4	*M4/4
*c:	*c:
*k[]	*k[]
16CLL	2r
16D	.
16E	.
16FJJ	.
16GLL	.
16A	.
16B	.
16cJJ	.
2r	16cLL
.	16d
.	16e
.	16fJJ
.	16gLL
.	16a
.	16b
.	16ccJJ
=146	=146
1r	16cLL
.	16d
.	16e
.	16fJJ
.	16gLL
.	16a
.	16b
.	16ccJJ
.	16ccLL
.	16dd
.	16ee
.	16ffJJ
.	16ggLL
.	16aa
.	16bb
.	16cccJJ
=147	=147
1r	16bbLL
.	16gg
.	16ff#
.	16eeJJ
.	16ddLL
.	16cc
.	16b
.	16aJJ
.	16gLL
.	16f#
.	16e
.	16dJJ
.	16cLL
.	16B
.	16A
.	16GJJ
=148	=148
2r	16gLL
.	16f#
.	16e
.	16dJJ
.	16cLL
.	16B
.	16A
.	16GJJ
16GLL	2r
16F#	.
16E	.
16DJJ	.
16CLL	.
16BB	.
16AA	.
16GGJJ	.
=149	=149
4GG 4BB 4D 4G	16ffLL
.	16gg
.	16aa
.	16ggJJ
4r	16ffLL
.	16ee
.	16dd
.	16cc#JJ
4GG 4BB 4D 4G	16ddLL
.	16ee
.	16ff
.	16eeJJ
4r	16ddLL
.	16cc
.	16b
.	16aJJ
=150	=150
4GG 4BB 4D 4G	16bLL
.	16cc
.	16dd
.	16ccJJ
4r	16bLL
.	16a
.	16g
.	16f#JJ
4GG 4BB 4D 4G	16gLL
.	16a
.	16b
.	16aJJ
4r	16gLL
.	16f
.	16e
.	16dJJ
=151	=151
2C 2E 2G	16eLL
.	16cc
.	16b
.	16aJJ
.	16gLL
.	16f
.	16e
.	16dJJ
2r	16cLL
.	16e
.	16g
.	16ccJJ
.	16eLL
.	16g
.	16cc
.	16eeJJ
=152	=152
16CLL	2e
16c	.
16B	.
16AJJ	.
16GLL	.
16F	.
16E	.
16DJJ	.
16CLL	2r
16E	.
16G	.
16cJJ	.
16ELL	.
16G	.
16c	.
16eJJ	.
=153	=153
*-	*-
